X: 4105
T: Bloom Of Youth, The
R: reel
M: 4/4
K: Gmajor
G2 DG EGDE|GABG AEEE|G2 DG EGAB|cedc BGAF|
G2 GB EBDE|G2 BG AEEE|G2 DG EGAB|cedc BG G2||
GdBd edBA|BdBG AEEg|g2 Bd edBA|Bdgd BG G2|
g2 fg egdB|BABG AEEE|^c2 cd egfa|gedc BGAF||

